X:1
T:Title
%%score { ( 1 3 ) | ( 2 4 ) }
L:1/8
M:4/4
K:F
V:1 treble nm="Grand Piano"
V:3 treble 
V:2 bass 
V:4 bass 
V:1
 z4 z2[Q:1/4=100] C2 | C3 C DEFB | A6 A2 | [CEG]3 [CE] [CF]2 [CFA]2 | [CEG]6 C2 | C3 C DEFB | %6
 A6 A2 | G3 c =B2 AB |[M:3/4] [Ec]6 |[M:1/4] [GB]2 |[M:4/4] A3 A ACFB | z4 z2 A2 | %12
 [Ec]3 [Ec] [Ec]2 [CGB]2 | [CFA]6 [CAc]2 | [Af]3 [CAc] [CGB][CFA][CGB][FAc] | [FBd]6 [B,DG][GB] | %16
 [CFA]3 F G2 E2 |[M:3/4] F6 |] %18
V:2
 z4 z2 [F,A,]2 | [F,A,]3 [F,A,] [F,B,][F,B,][F,A,][F,D] | [F,C]6 [F,CF]2 | C,3 B,, A,,2 F,,2 | %4
 C,6 [C,G,B,]2 | [F,A,]3 [F,A,] [F,B,][F,B,][F,A,][F,D] | [F,C]6[K:treble] [F,CF]2 | %7
 [G,CE]3 [G,E] [G,F]2[K:bass] [G,,G,]2 |[M:3/4] [C,G,]6 |[M:1/4] [C,C]2 | %10
[M:4/4] [F,CF]3 [F,CF] [F,C][F,A,][F,A,C][F,DF] | [F,CF]6 .[F,CF]2 | [C,G,]3 [C,G,] [C,G,]2 D,E, | %13
 F,6 F,2 | [F,C]3 F, F,F,F,F, | B,,6 z D | C,3 [C,A,C] [C,B,C]2 [C,B,C]2 |[M:3/4] [F,A,C]6 |] %18
V:3
 x8 | x8 | x8 | x8 | x8 | x8 | x8 | z4 z2 F2 |[M:3/4] x6 |[M:1/4] x2 |[M:4/4] x8 | A6 z A, | x8 | %13
 x8 | x8 | x8 | x8 |[M:3/4] x6 |] %18
V:4
 x8 | x8 | x8 | x8 | x8 | x8 | x6[K:treble] x2 | x6[K:bass] x2 |[M:3/4] x6 |[M:1/4] x2 | %10
[M:4/4] x8 | x8 | x8 | x8 | x8 | z4 z2 B,,2 | x8 |[M:3/4] x6 |] %18

